Adwaita++-Dark/actions/22/node-break.svg

<svg height="22" viewBox="0 0 22 22" width="22" xmlns="http://www.w3.org/2000/svg">
  <path d="m5 0v1.9726562h-4.47851562a.50005.50005 0 1 0 0 1h4.47851562v2.0273438h5v-2.0273438h4.498047a.50005.50005 0 1 0 0-1h-4.498047v-1.9726562zm2 5.0273438v2h-2l2.5 3.0000002 2.5-3.0000002h-2v-2zm-6 5.9726562v2h-.49609375a.499025.499025 0 1 0 0 .998047h.49609375v2.001953h4v-5zm9 0v5h4v-2h.507812a.50005.50005 0 1 0 0-1h-.507812v-2z" fill="#e6ddff" transform="translate(3 3)"/>
</svg>

<svg xmlns="http://www.w3.org/2000/svg" width="22" height="22" viewBox="0 0 22 22">
 <defs>
  <style id="current-color-scheme" type="text/css">
   .ColorScheme-Text { color:#E6DDFF; } .ColorScheme-Highlight { color:#4285f4; }
  </style>
 </defs>
 <path style="fill:currentColor" class="ColorScheme-Text" d="M 5 0 L 5 1.9726562 L 0.52148438 1.9726562 A 0.50005 0.50005 0 1 0 0.52148438 2.9726562 L 5 2.9726562 L 5 5 L 10 5 L 10 2.9726562 L 14.498047 2.9726562 A 0.50005 0.50005 0 1 0 14.498047 1.9726562 L 10 1.9726562 L 10 0 L 5 0 z M 7 5.0273438 L 7 7.0273438 L 5 7.0273438 L 7.5 10.027344 L 10 7.0273438 L 8 7.0273438 L 8 5.0273438 L 7 5.0273438 z M 1 11 L 1 13 L 0.50390625 13 A 0.499025 0.499025 0 1 0 0.50390625 13.998047 L 1 13.998047 L 1 16 L 5 16 L 5 11 L 1 11 z M 10 11 L 10 16 L 14 16 L 14 14 L 14.507812 14 A 0.50005 0.50005 0 1 0 14.507812 13 L 14 13 L 14 11 L 10 11 z" transform="translate(3 3)"/>
</svg>
